app/img/logo-footer.svg

<svg width="142" height="24" viewBox="0 0 142 24" fill="none" xmlns="http://www.w3.org/2000/svg">
<g clip-path="url(#clip0)">
<path d="M0 12.1089C0 5.45433 3.60461 1.41797 9.50308 1.41797C13.9815 1.41797 17.5862 4.14524 18.2415 8.18161C18.3508 8.61797 18.0231 8.94524 17.5862 8.94524H14.7462C14.4185 8.94524 14.2 8.72706 14.0908 8.39979C13.5446 6.32706 11.7969 5.01797 9.50308 5.01797C6.33538 5.01797 4.36923 7.74524 4.36923 12.1089C4.36923 16.4725 6.33538 19.1998 9.61231 19.1998C11.9062 19.1998 13.5446 17.9998 14.2 16.0362C14.3092 15.7089 14.5277 15.4907 14.8554 15.4907H17.6954C18.1323 15.4907 18.46 15.9271 18.3508 16.2543C17.6954 20.1816 14.2 22.7998 9.61231 22.7998C3.60462 22.7998 0 18.6543 0 12.1089Z" fill="white"/>
<path d="M26.5428 22.2546H23.3751C23.0474 22.2546 22.8289 22.0364 22.8289 21.7092V2.83643C22.8289 2.40007 23.2659 1.9637 23.7028 1.9637H31.3489C35.8274 1.9637 38.5582 4.47279 38.5582 8.40007C38.5582 10.691 37.4659 12.7637 35.6089 13.8546C35.172 14.0728 35.0628 14.6182 35.2812 14.9455L38.6674 21.3819C38.8859 21.7092 38.5582 22.1455 38.2305 22.1455H34.6259C34.4074 22.1455 34.1889 22.0364 34.0797 21.8182L30.912 15.2728C30.8028 14.9455 30.4751 14.8364 30.1474 14.8364H27.6351C27.3074 14.8364 27.0889 15.0546 27.0889 15.3819V21.8182C27.1982 22.0364 26.8705 22.2546 26.5428 22.2546ZM27.1982 11.1273C27.1982 11.4546 27.4166 11.6728 27.7443 11.6728H31.0212C33.2059 11.6728 34.4074 10.4728 34.4074 8.50916C34.4074 6.54552 33.0966 5.34552 31.0212 5.34552H27.8535C27.5259 5.34552 27.3074 5.5637 27.3074 5.89098V11.1273H27.1982Z" fill="white"/>
<path d="M56.2537 22.2546H44.2383C43.8014 22.2546 43.4737 21.9273 43.4737 21.491V2.72734C43.4737 2.29098 43.8014 1.9637 44.2383 1.9637H56.2537C56.6906 1.9637 57.0183 2.29098 57.0183 2.72734V4.80007C57.0183 5.23643 56.6906 5.5637 56.2537 5.5637H48.2798C47.9521 5.5637 47.7337 5.78188 47.7337 6.10916V9.81825C47.7337 10.1455 47.9521 10.3637 48.2798 10.3637H55.7075C56.1445 10.3637 56.4721 10.691 56.4721 11.1273V12.9819C56.4721 13.4182 56.1445 13.7455 55.7075 13.7455H48.2798C47.9521 13.7455 47.7337 13.9637 47.7337 14.291V18.4364C47.7337 18.7637 47.9521 18.9819 48.2798 18.9819H56.2537C56.6906 18.9819 57.0183 19.3092 57.0183 19.7455V21.8182C57.0183 21.9273 56.6906 22.2546 56.2537 22.2546Z" fill="white"/>
<path d="M73.1846 17.3455H66.9584C66.6307 17.3455 66.4123 17.5637 66.303 17.7819L65.1015 21.8182C64.9923 22.1455 64.7738 22.2546 64.4461 22.2546H61.6061C61.1692 22.2546 60.8415 21.8182 60.9507 21.3819L67.5046 2.40007C67.6138 2.18189 67.8323 1.9637 68.16 1.9637H72.2015C72.5292 1.9637 72.7476 2.18189 72.8569 2.40007L79.4107 21.3819C79.5199 21.8182 79.1923 22.2546 78.7553 22.2546H75.5876C75.2599 22.2546 75.0415 22.0364 74.9323 21.8182L73.7307 17.7819C73.7307 17.5637 73.403 17.3455 73.1846 17.3455ZM67.8323 14.1819H72.3107C72.5292 14.1819 72.6384 13.9637 72.6384 13.7455L70.2353 6.10916H70.0169L67.6138 13.7455C67.5046 13.9637 67.6138 14.1819 67.8323 14.1819Z" fill="white"/>
<path d="M86.2925 21.4914V6.00049C86.2925 5.67322 86.074 5.45504 85.7463 5.45504H80.9402C80.5033 5.45504 80.0663 5.12777 80.0663 4.58231V2.72777C80.0663 2.2914 80.394 1.85504 80.9402 1.85504H95.7955C96.2324 1.85504 96.6694 2.18231 96.6694 2.72777V4.58231C96.6694 5.01867 96.3417 5.45504 95.7955 5.45504H90.9894C90.6617 5.45504 90.4432 5.67322 90.4432 6.00049V21.6005C90.4432 22.0369 90.1155 22.3641 89.6786 22.3641H86.9479C86.6202 22.255 86.2925 21.9278 86.2925 21.4914Z" fill="white"/>
<path d="M113.381 22.2546H101.366C100.929 22.2546 100.601 21.9273 100.601 21.491V2.72734C100.601 2.29098 100.929 1.9637 101.366 1.9637H113.381C113.818 1.9637 114.146 2.29098 114.146 2.72734V4.80007C114.146 5.23643 113.818 5.5637 113.381 5.5637H105.408C105.08 5.5637 104.861 5.78188 104.861 6.10916V9.81825C104.861 10.1455 105.08 10.3637 105.408 10.3637H112.835C113.272 10.3637 113.6 10.691 113.6 11.1273V12.9819C113.6 13.4182 113.272 13.7455 112.835 13.7455H105.408C105.08 13.7455 104.861 13.9637 104.861 14.291V18.4364C104.861 18.7637 105.08 18.9819 105.408 18.9819H113.381C113.818 18.9819 114.146 19.3092 114.146 19.7455V21.8182C114.146 21.9273 113.818 22.2546 113.381 22.2546Z" fill="white"/>
<path d="M128.564 10.5827L121.792 1.74634C121.355 1.30998 120.809 1.0918 120.263 1.0918C119.717 1.0918 119.171 1.30998 118.734 1.74634C117.969 2.61907 117.969 3.92816 118.734 4.80089L124.086 12.0009L118.734 19.2009C117.969 20.0736 117.969 21.3827 118.734 22.2554C119.171 22.6918 119.717 22.91 120.263 22.91C120.809 22.91 121.355 22.6918 121.792 22.2554L128.564 13.4191C129.329 12.7645 129.329 11.4554 128.564 10.5827Z" fill="#FF5A30"/>
<path d="M131.451 10.5827L138.223 1.74634C138.66 1.30998 139.207 1.0918 139.753 1.0918C140.299 1.0918 140.845 1.30998 141.282 1.74634C142.047 2.61907 142.047 3.92816 141.282 4.80089L135.93 12.0009L141.282 19.2009C142.047 20.0736 142.047 21.3827 141.282 22.2554C140.845 22.6918 140.299 22.91 139.753 22.91C139.207 22.91 138.66 22.6918 138.223 22.2554L131.451 13.4191C130.686 12.7645 130.686 11.4554 131.451 10.5827Z" fill="#FF5A30"/>
</g>
<defs>
<clipPath id="clip0">
<rect width="142" height="24" fill="white"/>
</clipPath>
</defs>
</svg>

<svg width="142" height="24" fill="none" xmlns="http://www.w3.org/2000/svg"><g clip-path="url(#clip0)"><path d="M0 12.109C0 5.454 3.605 1.418 9.503 1.418c4.479 0 8.083 2.727 8.738 6.764.11.436-.218.763-.655.763h-2.84c-.328 0-.546-.218-.655-.545-.546-2.073-2.294-3.382-4.588-3.382-3.168 0-5.134 2.727-5.134 7.09 0 4.364 1.966 7.092 5.243 7.092 2.294 0 3.933-1.2 4.588-3.164.11-.327.328-.545.655-.545h2.84c.437 0 .765.436.656.763-.656 3.928-4.151 6.546-8.739 6.546C3.605 22.8 0 18.654 0 12.109zM26.543 22.255h-3.168c-.328 0-.546-.219-.546-.546V2.836c0-.436.437-.872.874-.872h7.646c4.478 0 7.21 2.509 7.21 6.436 0 2.291-1.093 4.364-2.95 5.455-.437.218-.546.763-.328 1.09l3.386 6.437c.219.327-.109.763-.437.763h-3.604a.6.6 0 01-.546-.327l-3.168-6.545c-.11-.328-.437-.437-.765-.437h-2.512c-.328 0-.546.219-.546.546v6.436c.11.218-.218.437-.546.437zm.655-11.128c0 .328.219.546.546.546h3.277c2.185 0 3.386-1.2 3.386-3.164 0-1.963-1.31-3.163-3.386-3.163h-3.168c-.327 0-.546.218-.546.545v5.236h-.109zM56.254 22.255H44.238a.746.746 0 01-.764-.764V2.727c0-.436.327-.763.764-.763h12.016c.437 0 .764.327.764.763V4.8a.746.746 0 01-.764.764H48.28c-.328 0-.546.218-.546.545v3.71c0 .326.218.545.546.545h7.428c.437 0 .764.327.764.763v1.855a.746.746 0 01-.764.764H48.28c-.328 0-.546.218-.546.545v4.145c0 .328.218.546.546.546h7.974c.437 0 .764.327.764.764v2.072c0 .11-.327.437-.764.437zM73.185 17.346h-6.227c-.327 0-.546.218-.655.436l-1.201 4.036c-.11.327-.328.437-.656.437h-2.84c-.437 0-.764-.437-.655-.873L67.505 2.4c.109-.218.327-.436.655-.436h4.041c.328 0 .547.218.656.436l6.554 18.982c.109.436-.219.873-.656.873h-3.167c-.328 0-.546-.219-.656-.437l-1.201-4.036c0-.218-.328-.436-.546-.436zm-5.353-3.164h4.479c.218 0 .327-.218.327-.437L70.235 6.11h-.218l-2.403 7.636c-.11.219 0 .437.218.437zM86.293 21.491V6.001c0-.328-.219-.546-.547-.546H80.94c-.437 0-.874-.327-.874-.873V2.728c0-.437.328-.873.874-.873h14.856c.436 0 .873.327.873.873v1.854a.861.861 0 01-.873.873h-4.807c-.327 0-.546.218-.546.545v15.6a.746.746 0 01-.764.764h-2.731c-.328-.109-.655-.436-.655-.873zM113.381 22.255h-12.015a.746.746 0 01-.765-.764V2.727c0-.436.328-.763.765-.763h12.015c.437 0 .765.327.765.763V4.8a.746.746 0 01-.765.764h-7.973c-.328 0-.547.218-.547.545v3.71c0 .326.219.545.547.545h7.427c.437 0 .765.327.765.763v1.855a.746.746 0 01-.765.764h-7.427c-.328 0-.547.218-.547.545v4.145c0 .328.219.546.547.546h7.973c.437 0 .765.327.765.764v2.072c0 .11-.328.437-.765.437z" fill="#fff"/><path d="M128.564 10.583l-6.772-8.837a2.158 2.158 0 00-1.529-.654c-.546 0-1.092.218-1.529.654a2.32 2.32 0 000 3.055l5.352 7.2-5.352 7.2a2.32 2.32 0 000 3.054c.437.437.983.655 1.529.655.546 0 1.092-.218 1.529-.655l6.772-8.836c.765-.655.765-1.964 0-2.836zM131.451 10.583l6.772-8.837a2.16 2.16 0 011.53-.654c.546 0 1.092.218 1.529.654a2.32 2.32 0 010 3.055L135.93 12l5.352 7.2a2.32 2.32 0 010 3.054 2.158 2.158 0 01-1.529.655 2.16 2.16 0 01-1.53-.655l-6.772-8.836c-.765-.655-.765-1.964 0-2.836z" fill="#FF5A30"/></g><defs><clipPath id="clip0"><path fill="#fff" d="M0 0h142v24H0z"/></clipPath></defs></svg>
